X:1
T:Title
%%score 1 2
L:1/8
Q:1/4=93
M:3/4
K:Ab
V:1 treble nm="Grand Piano, Soprano"
V:2 bass nm="Choir Pad, Songs of Joy and Peace"
V:1
 [CE]>[CE] [CE]3 [CE] | [CE][CA] [DF]2 [CE]2 | [CE]>[CE] [CA]3 [CA] | [Fd]>[Fd] [Ec]2 [EB]2 | %4
w: By~Solomon~W.~Straub * * *||||
 E>[EG] [EB]3 [EA] | [EB]>[Ec] [Ed]4 | [Ed]>[Ac] [GB]3 [FA] | [=DF]>[Dc] [EB]4 | [ce]>[Bd] [Ac]4- | %9
w: |||||
 [Ac]>[Fd] [Ec]>[DB] [CA]2- | [CA]4 [ce]>[Ac] | [GB]4- [GB]>[FA] | [EB]>[=Dc] [EB]4- | %13
w: ||||
 [EB]2 [CE]>[EA] [Ac]2- | [Ac]3- [Ac]/[EA]/ [FB]>[_Gc] | [Fd]6 | [Ac]>[GB] [ce]4- | %17
w: ||||
 [ce]>[Ac] [Ed]>[DB] [CA]2- | [CA]6 |] %19
w: ||
V:2
 [A,,A,]>[A,,A,] [A,,A,]3 [A,,A,] | [A,,A,][A,,A,] [A,,A,]2 [A,,A,]2 | %2
 [A,,A,]>[A,,A,] [A,,A,]3 A, | A,>A, [E,A,]2 [E,G,]2 | [E,G,]>[E,B,] [E,G,]3 [E,F,] | %5
 [E,G,]>[D,A,] [E,B,]4 | [G,B,]>[A,C] [B,E]3 B, | [B,,B,]>[B,,A,] [E,G,]4 | z2 z2 A,>A, | %9
 A,>A, [E,A,]>E, [A,,E,]2- | [A,,E,]4 z2 | z2 [E,B,]>[E,B,] [E,B,]>[E,B,] | %12
 [B,,G,]>[B,,A,] [E,G,]4- | [E,G,]2 z2 z2 | A,>A, A,>[_G,A,] [F,A,]>[E,A,] | [D,A,]6 | %16
 z2 z2 [E,A,]>[E,A,] | [E,A,]>[E,A,] [E,B,]>[E,G,] [A,,A,]2- | [A,,A,]6 |] %19

